Flat-Remix-Blue-Dark/mimetypes/scalable/application-video.svg

<svg xmlns="http://www.w3.org/2000/svg" xmlns:xlink="http://www.w3.org/1999/xlink" width="36pt" height="36pt" version="1.1" viewBox="0 0 36 36"> <defs> <filter id="alpha" width="100%" height="100%" x="0%" y="0%" filterUnits="objectBoundingBox"> <feColorMatrix in="SourceGraphic" type="matrix" values="0 0 0 0 1 0 0 0 0 1 0 0 0 0 1 0 0 0 1 0"/> </filter> <linearGradient id="linear0-7" x1="165.125" x2="267.836" y1="53.815" y2="394.134" gradientTransform="matrix(0.753855,0,0,0.69848,-0.948249,5.29086)" gradientUnits="userSpaceOnUse"> <stop style="stop-color:rgb(15.294%,16.470%,20.392%)" offset="0"/> <stop style="stop-color:rgb(29.803%,29.803%,29.803%)" offset="1"/> </linearGradient> <filter id="alpha-2" width="100%" height="100%" x="0%" y="0%" filterUnits="objectBoundingBox"> <feColorMatrix in="SourceGraphic" type="matrix" values="0 0 0 0 1 0 0 0 0 1 0 0 0 0 1 0 0 0 1 0"/> </filter> <mask id="mask0-7"> <g style="filter:url(#alpha-2)" filter="url(#alpha)"> <rect style="fill:rgb(0%,0%,0%);fill-opacity:0.301961" width="384" height="384" x="0" y="0"/> </g> </mask> <clipPath id="clip1-2"> <rect width="384" height="384" x="0" y="0"/> </clipPath> <g id="surface5-2" clip-path="url(#clip1-2)"> <path d="M 361.578125 314.078125 C 361.578125 317.453125 359.011719 320.199219 355.714844 320.488281 L 27.964844 320.488281 C 25.355469 320.261719 23.207031 318.492188 22.421875 316.089844 L 22.421875 323.589844 C 23.207031 325.992188 25.355469 327.761719 27.964844 327.988281 L 355.714844 327.988281 C 359.011719 327.699219 361.578125 324.953125 361.578125 321.578125 Z M 361.578125 314.078125" style="fill:rgb(0%,0%,0%)"/> </g> <mask id="mask1-6"> <g style="filter:url(#alpha-2)" filter="url(#alpha)"> <rect style="fill:rgb(0%,0%,0%);fill-opacity:0.2" width="384" height="384" x="0" y="0"/> </g> </mask> <clipPath id="clip2-1"> <rect width="384" height="384" x="0" y="0"/> </clipPath> <g id="surface8-0" clip-path="url(#clip2-1)"> <path d="M 100.867188 173.480469 C 102.5625 165.675781 109.488281 159.847656 117.773438 159.863281 L 217.765625 160.019531 C 227.3125 160.039062 235.050781 167.785156 235.03125 177.332031 L 235 209.070312 L 283.632812 173.519531 L 283.503906 243.574219 L 234.957031 209.773438 L 234.941406 239.632812 C 234.972656 249.207031 227.183594 256.953125 217.636719 256.933594 L 117.640625 256.78125 C 112.867188 256.765625 108.792969 255.078125 105.421875 251.714844 C 102.042969 248.324219 100.359375 244.230469 100.371094 239.429688 L 100.460938 182.902344 Z M 100.867188 173.480469" style="fill:rgb(0%,0%,0%)"/> </g> <mask id="mask2-6"> <g style="filter:url(#alpha-2)" filter="url(#alpha)"> <rect style="fill:rgb(0%,0%,0%);fill-opacity:0.2" width="384" height="384" x="0" y="0"/> </g> </mask> <clipPath id="clip3-1"> <rect width="384" height="384" x="0" y="0"/> </clipPath> <g id="surface11-5" clip-path="url(#clip3-1)"> <path d="M 100.867188 178.5625 C 102.5625 170.757812 109.488281 164.929688 117.773438 164.945312 L 217.765625 165.101562 C 227.3125 165.121094 235.050781 172.867188 235.03125 182.414062 L 235 214.152344 L 283.632812 178.601562 L 283.503906 248.65625 L 234.957031 214.855469 L 234.941406 244.714844 C 234.972656 254.292969 227.183594 262.035156 217.636719 262.015625 L 117.640625 261.863281 C 112.867188 261.847656 108.792969 260.160156 105.421875 256.796875 C 102.042969 253.410156 100.359375 249.3125 100.371094 244.511719 L 100.460938 187.984375 Z M 100.867188 178.5625" style="fill:rgb(0%,0%,0%)"/> </g> <mask id="mask3-9"> <g style="filter:url(#alpha-2)" filter="url(#alpha)"> <rect style="fill:rgb(0%,0%,0%);fill-opacity:0.301961" width="384" height="384" x="0" y="0"/> </g> </mask> <clipPath id="clip4-4"> <rect width="384" height="384" x="0" y="0"/> </clipPath> <g id="surface14-9" clip-path="url(#clip4-4)"> <path d="M 30.960938 56.238281 C 26.261719 56.238281 22.476562 60.023438 22.476562 64.722656 L 22.476562 78.808594 L 361.382812 78.808594 L 361.382812 64.722656 C 361.382812 60.023438 357.597656 56.238281 352.898438 56.238281 Z M 30.960938 56.238281" style="fill:rgb(0%,0%,0%)"/> </g> </defs> <g transform="translate(2.8550052,8.7349446)"> <g> <g transform="matrix(0.09730029,0,0,0.09730029,-3.5366609,-9.4166003)"> <path d="M 30.964844,56.234375 H 352.89844 c 4.6875,0 8.48437,3.800781 8.48437,8.484375 V 194.75 c 0,4.6875 -3.79687,8.48437 -8.48437,8.48437 H 30.964844 c -4.6875,0 -8.488282,-3.79687 -8.488282,-8.48437 V 64.71875 c 0,-4.683594 3.800782,-8.484375 8.488282,-8.484375 z m 0,0" style="fill:rgb(37.647%,38.823%,43.137%)"/> <path d="m 82.832031,56.011719 c -11.992187,0 -21.925781,0.117187 -22.070312,0.261719 -0.148438,0.144531 4.785156,5.28125 10.960937,11.414062 L 82.953125,78.789062 82.851562,90.871094 82.75,102.90234 52.632812,103 22.511719,103.0977 v 28.34765 c -0.02734,0.0781 -0.06641,0.15235 -0.08984,0.23438 v 191.89062 c 0.777344,2.39453 2.902344,4.16406 5.484375,4.41406 H 355.76953 c 3.26953,-0.3164 5.80859,-3.0664 5.80859,-6.43359 v -187.8516 c 0,-0.29297 -0.0234,-0.58203 -0.0625,-0.86328 l -0.20703,-66.976565 c 0,-4.835937 -1.98047,-9.488281 -9.0664,-9.566406 l -17.25,-0.191407 c -9.78516,-0.109374 -15.49219,-0.02734 -15.79297,0.269532 -0.30469,0.304687 2.51172,3.324218 10.48828,11.234375 6,5.949219 11.03125,11.023437 11.17969,11.183593 0.15234,0.160157 -5.1836,5.632813 -11.85547,12.257813 l -12.13281,12.046875 h -15.09375 c -10.52735,0 -15.16797,-0.125 -15.34766,-0.41406 -0.14844,-0.23828 4.87109,-5.503909 11.84375,-12.425784 L 310.37891,78.789062 299.75,67.664062 c -5.84766,-5.816406 -11.09375,-10.820312 -11.65625,-11.113281 -0.83594,-0.441406 -3.66406,-0.539062 -15.27344,-0.539062 -10.13672,0 -14.32812,0.121093 -14.51562,0.421875 -0.15625,0.253906 4.14453,4.796875 10.60937,11.207031 5.98047,5.929687 10.9961,10.988281 11.14453,11.148437 0.15235,0.160157 -5.18359,5.632813 -11.85547,12.257813 l -12.13281,12.046875 h -15.09375 c -10.52734,0 -15.16797,-0.125 -15.34765,-0.41406 -0.14844,-0.23828 4.87109,-5.503909 11.84375,-12.425784 l 12.09765,-11.464844 -10.6289,-11.125 c -5.84766,-5.816406 -11.09375,-10.820312 -11.65625,-11.113281 -0.83594,-0.441406 -3.66407,-0.539062 -15.27344,-0.539062 -10.13672,0 -14.32813,0.121093 -14.51563,0.421875 -0.15625,0.253906 4.14453,4.796875 10.60938,11.207031 5.98047,5.929687 10.99609,10.988281 11.14453,11.148437 0.15234,0.160157 -5.18359,5.632813 -11.85547,12.257813 l -12.13281,12.046875 h -15.09375 c -10.52735,0 -15.16797,-0.125 -15.34766,-0.41406 -0.14844,-0.23828 4.8711,-5.503909 11.84375,-12.425784 l 12.19141,-11.464844 -10.72266,-11.125 c -5.84765,-5.816406 -11.09375,-10.820312 -11.65625,-11.113281 -0.83594,-0.441406 -3.66406,-0.539062 -15.27344,-0.539062 -10.13671,0 -14.32812,0.121093 -14.51562,0.421875 -0.15625,0.253906 4.14453,4.796875 10.60937,11.207031 5.98047,5.929687 10.9961,10.988281 11.14454,11.148437 0.15234,0.160157 -5.1836,5.632813 -11.85547,12.257813 l -12.13282,12.046875 h -15.09374 c -10.52735,0 -15.16797,-0.125 -15.34766,-0.41406 -0.14844,-0.23828 4.87109,-5.503909 11.84375,-12.425784 l 12.09766,-11.464844 -10.62891,-11.125 C 111.47656,61.847656 106.23047,56.84375 105.66797,56.550781 104.8125,56.101562 100.99219,56.011719 82.832031,56.011719 Z m 0,0" style="fill:url(#linear0-7)"/> <path d="m 22.421875,211.36328 v 112.22656 c 0.785156,2.40235 2.933594,4.17188 5.542969,4.39844 H 355.71484 c 3.29688,-0.28906 5.86328,-3.03516 5.86328,-6.41016 V 211.36328 Z m 0,0" style="fill:rgb(29.803%,29.803%,29.803%)"/> <use width="100%" height="100%" x="0" y="0" mask="url(#mask0-7)" xlink:href="#surface5-2"/> <use width="100%" height="100%" x="0" y="0" mask="url(#mask1-6)" xlink:href="#surface8-0"/> <use width="100%" height="100%" x="0" y="0" mask="url(#mask2-6)" xlink:href="#surface11-5"/> <use width="100%" height="100%" x="0" y="0" mask="url(#mask3-9)" xlink:href="#surface14-9"/> </g> </g> </g> </svg>

<svg width="36pt" height="36pt" version="1.1" viewBox="0 0 36 36" xmlns="http://www.w3.org/2000/svg"><defs><clipPath><rect width="384" height="384"/></clipPath><clipPath><rect width="384" height="384"/></clipPath><clipPath><rect width="384" height="384"/></clipPath><clipPath><rect width="384" height="384"/></clipPath><linearGradient id="b" x1="165.12" x2="267.84" y1="53.815" y2="394.13" gradientTransform="matrix(.75386 0 0 .69848 -.94825 5.2909)" gradientUnits="userSpaceOnUse"><stop stop-color="#262933" offset="0"/><stop stop-color="#4b4b4b" offset="1"/></linearGradient><clipPath id="a"><rect width="384" height="384"/></clipPath></defs><g transform="matrix(.0973 0 0 .0973 -.68143 -.68155)"><path d="m30.965 56.234h321.93c4.6875 0 8.4844 3.8008 8.4844 8.4844v130.03c0 4.6875-3.7969 8.4844-8.4844 8.4844h-321.93c-4.6875 0-8.4883-3.7969-8.4883-8.4844v-130.03c0-4.6836 3.8008-8.4844 8.4883-8.4844z" fill="#5f626d"/><path d="m82.832 56.012c-11.992 0-21.926 0.11719-22.07 0.26172-0.14844 0.14453 4.7852 5.2812 10.961 11.414l11.23 11.102-0.10156 12.082-0.10156 12.031-60.238 0.19531v28.348c-0.02734 0.0781-0.06641 0.15234-0.08984 0.23438v191.89c0.77734 2.3945 2.9023 4.1641 5.4844 4.4141h327.86c3.2695-0.31641 5.8086-3.0664 5.8086-6.4336v-187.85c0-0.29297-0.0234-0.58203-0.0625-0.86328l-0.20703-66.977c0-4.8359-1.9805-9.4883-9.0664-9.5664l-17.25-0.19141c-9.7852-0.10937-15.492-0.02734-15.793 0.26953-0.30469 0.30469 2.5117 3.3242 10.488 11.234 6 5.9492 11.031 11.023 11.18 11.184 0.15234 0.16016-5.1836 5.6328-11.855 12.258l-12.133 12.047h-15.094c-10.527 0-15.168-0.125-15.348-0.41406-0.14844-0.23828 4.8711-5.5039 11.844-12.426l12.098-11.465-10.629-11.125c-5.8477-5.8164-11.094-10.82-11.656-11.113-0.83594-0.44141-3.6641-0.53906-15.273-0.53906-10.137 0-14.328 0.12109-14.516 0.42188-0.15625 0.25391 4.1445 4.7969 10.609 11.207 5.9805 5.9297 10.996 10.988 11.145 11.148 0.15234 0.16016-5.1836 5.6328-11.855 12.258l-12.133 12.047h-15.094c-10.527 0-15.168-0.125-15.348-0.41406-0.14844-0.23828 4.8711-5.5039 11.844-12.426l12.098-11.465-10.629-11.125c-5.8477-5.8164-11.094-10.82-11.656-11.113-0.83594-0.44141-3.6641-0.53906-15.273-0.53906-10.137 0-14.328 0.12109-14.516 0.42188-0.15625 0.25391 4.1445 4.7969 10.609 11.207 5.9805 5.9297 10.996 10.988 11.145 11.148 0.15234 0.16016-5.1836 5.6328-11.855 12.258l-12.133 12.047h-15.094c-10.527 0-15.168-0.125-15.348-0.41406-0.14844-0.23828 4.8711-5.5039 11.844-12.426l12.191-11.465-10.723-11.125c-5.8477-5.8164-11.094-10.82-11.656-11.113-0.83594-0.44141-3.6641-0.53906-15.273-0.53906-10.137 0-14.328 0.12109-14.516 0.42188-0.15625 0.25391 4.1445 4.7969 10.609 11.207 5.9805 5.9297 10.996 10.988 11.145 11.148 0.15234 0.16016-5.1836 5.6328-11.855 12.258l-12.133 12.047h-15.094c-10.527 0-15.168-0.125-15.348-0.41406-0.14844-0.23828 4.8711-5.5039 11.844-12.426l12.098-11.465-10.629-11.125c-5.8477-5.8164-11.094-10.82-11.656-11.113-0.85547-0.44922-4.6758-0.53906-22.836-0.53906z" fill="url(#b)"/><path d="m22.422 211.36v112.23c0.78516 2.4023 2.9336 4.1719 5.543 4.3984h327.75c3.2969-0.28906 5.8633-3.0352 5.8633-6.4102v-110.21z" fill="#4b4b4b"/><path transform="scale(.75)" d="m482.1 418.77c0 4.5-3.4206 8.1615-7.8164 8.5469h-437c-3.4792-0.30208-6.3438-2.6621-7.3906-5.8652v10c1.0469 3.2031 3.9115 5.5632 7.3906 5.8652h437c4.3958-0.38541 7.8164-4.0469 7.8164-8.5469z" fill="#080000" opacity=".3" stroke-width="1.3333"/><path d="m30.978 56.279c-4.6875 0-8.4888 3.8008-8.4888 8.4844v14.338h338.91v-14.338c0-1.9908-0.69104-3.8184-1.8398-5.2661-0.57219-0.77931-1.3069-1.4504-2.2339-1.9717-1.2862-0.7857-2.7926-1.2466-4.4106-1.2466z" opacity=".3"/><g fill="#000000ff" opacity=".3"><path d="m100.87 178.56c1.6953-7.8047 8.6211-13.633 16.906-13.617l99.992 0.15625c9.5469 0.0195 17.285 7.7656 17.266 17.312l-0.0312 31.738 48.633-35.551-0.12891 70.055-48.547-33.801-0.0156 29.859c0.0312 9.5781-7.7578 17.32-17.305 17.301l-99.996-0.15234c-4.7734-0.0156-8.8477-1.7031-12.219-5.0664-3.3789-3.3867-5.0625-7.4844-5.0508-12.285l0.0898-56.527z"/></g><g clip-path="url(#a)" fill="#000000ff" opacity=".3"><path d="m100.87 173.48c1.6953-7.8047 8.6211-13.633 16.906-13.617l99.992 0.15625c9.5469 0.0195 17.285 7.7656 17.266 17.312l-0.0312 31.738 48.633-35.551-0.12891 70.055-48.547-33.801-0.0156 29.859c0.0312 9.5742-7.7578 17.32-17.305 17.301l-99.996-0.15234c-4.7734-0.0156-8.8477-1.7031-12.219-5.0664-3.3789-3.3906-5.0625-7.4844-5.0508-12.285l0.0898-56.527z"/></g></g></svg>
